X: 232
T: A Jig For Christmas
R: jig
M: 6/8
K: Amajor
|:E>FG|A2 E B2 E|deB ABc|d>cB cBA|B2 G Eed|
c2 A E2 [Cc]|F/G/AF d>cB|cBA E2 G|A3:|
|:c2 d|e2 c Afe|d2 B Ged|cBA d/c/BA|GA/G/F EE/F/G|
A2 E BEe|dc/B/A e2 c|dc/B/A E2 G|A3:|

